X: 11103
Q: "Slow with expression."
U: p=!crescendo(!
U: P=!crescendo)!
M: 6/8
L: 1/8
K: Eb
|:\
E>FG G3 !p!| c>BG G3 |\
E>FG G3 | "_>"c2d T"_>"c2B |\
E>FG G3 | c>BG G3 |\
|:!p!\
{G}e2e "^cres."{d}f2f | g2a gcz |\
{G}pe2e P{d}f2f | "_>"g2a "_>"g2f |\
p{G}e2e {d}f2f | PHb2g gfz !p!|\
c2B B.Gz | {G}"_>"e2d T"_>"c2B :|



